X: 262
T: The Shaskeen
R: reel
M: C|
L: 1/8
K: Gmaj
|:DGG2 ABcA|d2ed cAAc|B3G A3F|GBAG FGEF|
DGG2 ABcA|d2ed cAA2|f3g fdcA|AGFA G4:|
dggf g2fg|abag fddc|B3G A3F|GBAG FDD2|
dggf g2fg|abag fdde|f2eg fdcA|AGFA G3B|
dggf g2fg|abag fddc|B3G A3F|GBAG FDD2|
BGG2 AFF2|dBB2 cAA2|f2eg fdcA|AGFA G4|| 

